src/ui/services/youtube-kids.svg

<?xml version="1.0" encoding="UTF-8"?>
<svg width="136px" height="24px" viewBox="0 0 136 24" version="1.1" xmlns="http://www.w3.org/2000/svg" xmlns:xlink="http://www.w3.org/1999/xlink">
    <!-- Generator: Sketch 55.2 (78181) - https://sketchapp.com -->
    <title>Kids_Logo_Black_forWhiteBG_RGB (1)</title>
    <desc>Created with Sketch.</desc>
    <g id="Page-1" stroke="none" stroke-width="1" fill="none" fill-rule="evenodd">
        <g id="Kids_Logo_Black_forWhiteBG_RGB-(1)" fill-rule="nonzero">
            <g id="Group" transform="translate(31.969171, 1.866667)" fill="#282828">
                <path d="M81.9721002,0.432 C80.8112524,0.432 80.2662042,0.872 80.2662042,2.4 C80.2662042,3.976 80.8112524,4.368 81.9721002,4.368 C83.1565318,4.368 83.6780059,3.97333333 83.6780059,2.4 C83.6806166,0.941333333 83.1565318,0.432 81.9721002,0.432 Z" id="Path"></path>
                <polygon id="Path" points="75.7171484 8.68 79.0870135 0.805333333 75.900578 0.805333333 73.9876686 5.55466667 72.2110212 10.216 72.2110212 0.805333333 69.2080154 0.805333333 69.2080154 20.24 72.2110212 20.24 72.2110212 14.6346667 73.6470135 11.1813333 75.9451252 20.24 79.1787283 20.24 76.5609249 11.2986667"></polygon>
                <polygon id="Path" points="80.4522543 6.04 83.4578805 6.04 83.4578805 20.24 80.4522543 20.24"></polygon>
                <path d="M100.005857,11.6453333 C98.9812717,10.88 98.3445087,10.3706667 98.3445087,9.25866667 C98.3445087,8.472 98.7087476,8.032 99.5734875,8.032 C100.461811,8.032 100.757919,8.65866667 100.778882,10.7893333 L103.42027,10.6746667 C103.624663,7.224 102.510983,5.78666667 99.6180347,5.78666667 C96.9321002,5.78666667 95.6114066,7.01333333 95.6114066,9.53866667 C95.6114066,11.832 96.7041233,12.8746667 98.4781503,14.24 C100.003237,15.4453333 100.891561,16.1173333 100.891561,17.088 C100.891561,17.8293333 100.435607,18.3386667 99.6389981,18.3386667 C98.7061272,18.3386667 98.1584586,17.4346667 98.297341,15.8613333 L95.6349904,15.9066667 C95.2262042,18.848 96.387052,20.5626667 99.4817726,20.5626667 C102.191291,20.5626667 103.601079,19.288 103.601079,16.7413333 C103.601079,14.4266667 102.463815,13.4986667 100.005857,11.6453333 L100.005857,11.6453333 Z" id="Path"></path>
                <path d="M91.1278613,0.088 L91.1278613,7.25333333 C90.5985356,6.328 89.587052,5.78666667 88.4655106,5.78666667 C86.3482081,5.78666667 85.37079,7.70933333 85.37079,11.9493333 L85.37079,14.1973333 C85.37079,18.8773333 86.1228516,20.4746667 88.3292486,20.4746667 C89.673526,20.4746667 90.8553372,19.5253333 91.2877071,18.2266667 L91.3322543,18.2266667 L91.7200771,20.2426667 L94.1544509,20.2426667 L94.1544509,0.088 L91.1278613,0.088 Z M91.1278613,16.8346667 C90.8998844,17.6693333 90.3312524,18.2026667 89.7390366,18.1306667 C88.8061657,18.1306667 88.5336416,17.2053333 88.5336416,13.96 L88.5336416,12.1306667 C88.5336416,9.05066667 88.8742967,8.07733333 89.8752987,8.07733333 C90.3757996,8.07733333 90.8527168,8.30933333 91.1278613,8.81866667 L91.1278613,16.8346667 Z" id="Shape"></path>
                <path d="M11.4617341,19.8266667 C10.8328324,19.3946667 10.3847399,18.7226667 10.1174566,17.8106667 C9.85279383,16.8986667 9.71915222,15.688 9.71915222,14.1733333 L9.71915222,12.112 C9.71915222,10.584 9.8711368,9.35466667 10.175106,8.42933333 C10.4790751,7.504 10.9533719,6.82666667 11.5979961,6.40266667 C12.2426204,5.97866667 13.0890173,5.76533333 14.1371869,5.76533333 C15.1696339,5.76533333 15.9950674,5.98133333 16.6187283,6.41333333 C17.2397688,6.84533333 17.6957225,7.52266667 17.9839692,8.44 C18.2722158,9.36 18.4163391,10.584 18.4163391,12.112 L18.4163391,14.1733333 C18.4163391,15.688 18.2748362,16.904 17.9944509,17.8213333 C17.7140655,18.7413333 17.2581118,19.4133333 16.62921,19.8373333 C16.0003083,20.2613333 15.1460501,20.4746908 14.0690559,20.4746908 C12.9606166,20.4773333 12.0906358,20.2586667 11.4617341,19.8266667 L11.4617341,19.8266667 Z M14.9888247,17.6026667 C15.1643931,17.1386667 15.2508671,16.384 15.2508671,15.3333333 L15.2508671,10.9093333 C15.2508671,9.89066667 15.1643931,9.144 14.9888247,8.67466667 C14.8132563,8.20266667 14.5066667,7.968 14.0664355,7.968 C13.6419268,7.968 13.340578,8.20266667 13.1676301,8.67466667 C12.9920617,9.14666667 12.9055877,9.89066667 12.9055877,10.9093333 L12.9055877,15.3333333 C12.9055877,16.384 12.9894412,17.1413333 13.1571484,17.6026667 C13.3248555,18.0666667 13.6262042,18.2986667 14.0664355,18.2986667 C14.5066667,18.2986667 14.8158767,18.0666667 14.9888247,17.6026667 Z" id="Shape"></path>
                <path d="M59.8137958,14.208 L59.8137958,14.9253333 C59.8137958,15.8373333 59.84,16.52 59.8924085,16.976 C59.944817,17.432 60.0548748,17.7626667 60.2225819,17.9733333 C60.390289,18.1813333 60.6470906,18.2853333 60.9956069,18.2853333 C61.4646628,18.2853333 61.7895954,18.0986667 61.9625434,17.728 C62.1381118,17.3573333 62.232447,16.7386667 62.2481696,15.8746667 L64.9576879,16.0373333 C64.9734104,16.16 64.9812717,16.3306667 64.9812717,16.5466667 C64.9812717,17.8586667 64.6275145,18.84 63.9226204,19.488 C63.2177264,20.136 62.2193449,20.4613333 60.9300963,20.4613333 C59.3814258,20.4613333 58.2965703,19.968 57.6755299,18.9786667 C57.051869,17.9893333 56.742659,16.4613333 56.742659,14.392 L56.742659,11.912 C56.742659,9.78133333 57.0649711,8.224 57.7095954,7.24266667 C58.3542197,6.26133333 59.4574181,5.77066667 61.0218112,5.77066667 C62.0988054,5.77066667 62.9268593,5.97066667 63.5033526,6.37333333 C64.0798459,6.776 64.4860116,7.4 64.7218497,8.25066667 C64.9576879,9.10133333 65.0756069,10.2746667 65.0756069,11.7733333 L65.0756069,14.2053333 L59.8137958,14.2053333 L59.8137958,14.208 Z M60.2121002,8.232 C60.0522543,8.432 59.9474374,8.76 59.8924085,9.216 C59.84,9.672 59.8137958,10.3626667 59.8137958,11.2906667 L59.8137958,12.3093333 L62.1119075,12.3093333 L62.1119075,11.2906667 C62.1119075,10.3786667 62.0804624,9.688 62.0201927,9.216 C61.9599229,8.744 61.8498651,8.41333333 61.6900193,8.21866667 C61.5301734,8.02666667 61.2838536,7.928 60.9510597,7.928 C60.6182659,7.93066667 60.3719461,8.032 60.2121002,8.232 L60.2121002,8.232 Z" id="Shape"></path>
                <path d="M3.81009634,13.9413333 L0.23583815,0.805333333 L3.35414258,0.805333333 L4.6067052,6.76 C4.92639692,8.22666667 5.15961464,9.47733333 5.31159923,10.512 L5.40331407,10.512 C5.50813102,9.77066667 5.74396917,8.528 6.10820809,6.78133333 L7.40531792,0.805333333 L10.5236224,0.805333333 L6.90481696,13.9413333 L6.90481696,20.2426667 L3.80747592,20.2426667 L3.80747592,13.9413333 L3.81009634,13.9413333 Z" id="Path"></path>
                <path d="M28.56,6.04266667 L28.56,20.2453333 L26.1020424,20.2453333 L25.8295183,18.5066667 L25.7613873,18.5066667 C25.0931792,19.8186667 24.0921773,20.4746667 22.7557611,20.4746667 C21.8307514,20.4746667 21.1468208,20.1653333 20.7065896,19.5493333 C20.2663584,18.9306667 20.0462428,17.9653333 20.0462428,16.6533333 L20.0462428,6.04266667 L23.188131,6.04266667 L23.188131,16.4666667 C23.188131,17.1013333 23.256262,17.552 23.3925241,17.8213333 C23.5287861,18.0906667 23.756763,18.2266667 24.0764547,18.2266667 C24.3489788,18.2266667 24.6110212,18.1413333 24.8625819,17.9706667 C25.1141426,17.8 25.2975723,17.584 25.4207322,17.3226667 L25.4207322,6.04 L28.56,6.04 L28.56,6.04266667 Z" id="Path"></path>
                <path d="M44.6756069,6.04266667 L44.6756069,20.2453333 L42.2176493,20.2453333 L41.9451252,18.5066667 L41.8769942,18.5066667 C41.2087861,19.8186667 40.2077842,20.4746667 38.871368,20.4746667 C37.9463584,20.4746667 37.2624277,20.1653333 36.8221965,19.5493333 C36.3819653,18.9306667 36.1618497,17.9653333 36.1618497,16.6533333 L36.1618497,6.04266667 L39.303738,6.04266667 L39.303738,16.4666667 C39.303738,17.1013333 39.371869,17.552 39.508131,17.8213333 C39.6443931,18.0906667 39.8723699,18.2266667 40.1920617,18.2266667 C40.4645857,18.2266667 40.7266281,18.1413333 40.9781888,17.9706667 C41.2297495,17.8 41.4131792,17.584 41.5363391,17.3226667 L41.5363391,6.04 L44.6756069,6.04 L44.6756069,6.04266667 Z" id="Path"></path>
                <polygon id="Path" points="37.097341 3.37866667 33.9790366 3.37866667 33.9790366 20.2453333 30.9052794 20.2453333 30.9052794 3.37866667 27.786975 3.37866667 27.786975 0.808 37.097341 0.808"></polygon>
                <path d="M55.0708285,8.312 C54.8795376,7.416 54.572948,6.768 54.1484393,6.36533333 C53.7239306,5.96266667 53.1395761,5.76266667 52.3953757,5.76266667 C51.8188825,5.76266667 51.2790751,5.928 50.7785742,6.26133333 C50.2780732,6.59466667 49.8902505,7.02933333 49.6177264,7.57066667 L49.5941426,7.57066667 L49.5941426,0.088 L46.567553,0.088 L46.567553,20.2426667 L49.1617726,20.2426667 L49.4814644,18.8986667 L49.5495954,18.8986667 C49.7932948,19.3786667 50.1575337,19.7546667 50.6423121,20.0346667 C51.1270906,20.312 51.6668979,20.4506667 52.2591137,20.4506667 C53.3203854,20.4506667 54.1038921,19.952 54.6043931,18.9573333 C55.104894,17.96 55.3564547,16.4053333 55.3564547,14.288 L55.3564547,12.04 C55.3564547,10.4533333 55.2621195,9.208 55.0708285,8.312 L55.0708285,8.312 Z M52.1909827,14.1066667 C52.1909827,15.1413333 52.1490559,15.952 52.0652023,16.5386667 C51.9813487,17.1253333 51.8424663,17.544 51.6433141,17.7893333 C51.4467823,18.0373333 51.179499,18.16 50.8467052,18.16 C50.5872832,18.16 50.3488247,18.0986667 50.1287091,17.9733333 C49.9085934,17.8506667 49.7304046,17.664 49.5941426,17.4186667 L49.5941426,9.35733333 C49.6989595,8.97066667 49.8823892,8.656 50.1418112,8.408 C50.3986127,8.16 50.6816185,8.03733333 50.9829672,8.03733333 C51.302659,8.03733333 51.5489788,8.16533333 51.7219268,8.41866667 C51.8974952,8.67466667 52.0180347,9.10133333 52.0861657,9.704 C52.1542967,10.3066667 52.1883622,11.1626667 52.1883622,12.2746667 L52.1883622,14.1066667 L52.1909827,14.1066667 Z" id="Shape"></path>
            </g>
            <path d="M28.9085164,13.576 C28.8901734,12.1626667 28.0883237,5.46933333 27.7031214,4.42933333 C27.4541811,3.75733333 26.9274759,2.53333333 25.9500578,1.78666667 C24.7001156,0.832 23.6807707,0.658666667 22.3810405,0.631862181 C21.4743738,0.613333333 6.88647399,2.496 5.12030829,3.15733333 C3.80223507,3.65066667 2.76716763,4.28533333 1.95483622,5.10133333 C0.634142582,6.42933333 0.379961464,7.72 0.589595376,9.98933333 C0.78088632,12.0453333 1.72685934,18.8693333 2.19853565,20.28 C2.72,21.84 3.67907514,23.0373333 5.26181118,23.208 C10.0912524,23.736 11.2311368,21.0373333 22.4596532,21.0613333 C25.8609634,21.0693333 27.5511368,19.5573333 28.2560308,18.24 C29.0788439,16.6906667 28.9216185,14.6533333 28.9085164,13.576 L28.9085164,13.576 Z" id="Path" fill="#FF0000"></path>
            <path d="M22.0168015,1.14933333 L22.0299037,1.14933333 C23.2719846,1.17333333 24.2441618,1.34133333 25.4364547,2.25066667 C26.3693256,2.96266667 26.872447,4.13066667 27.1082852,4.77333333 C27.4751445,5.76533333 28.2403083,12.152 28.2586513,13.5013333 C28.2717534,14.528 28.423738,16.4746667 27.6349904,17.952 C26.9667823,19.2053333 25.357842,20.6426667 22.1294798,20.6426667 C22.1216185,20.6426667 22.1137572,20.6426667 22.105896,20.6426667 C22.0561079,20.6426667 22.0089403,20.6426667 21.9591522,20.6426667 C12.3290944,20.6426667 10.5576879,22.7546667 6.8550289,22.7546667 C6.49078998,22.7546667 6.10820809,22.7333333 5.69942197,22.6906667 C4.1900578,22.5253333 3.27552987,21.384 2.77764933,19.896 C2.32693642,18.5493333 1.4255106,12.04 1.24208092,10.0773333 C1.04030829,7.912 1.28400771,6.68 2.5444316,5.41333333 C3.31745665,4.63466667 4.30535645,4.02933333 5.56578035,3.56 C7.23761079,2.93066667 21.0341426,1.14933333 22.0168015,1.14933333 L22.0168015,1.14933333 Z M22.0168015,0.016 C21.3931407,0.016 17.3157611,0.522666667 13.9013487,0.994666667 C10.484316,1.46666667 6.19992293,2.112 5.17795761,2.49333333 C3.76816956,3.02133333 2.64924855,3.712 1.76092486,4.60533333 C0.125780347,6.248 -0.073371869,7.95733333 0.131021195,10.184 C0.290867052,11.9093333 1.20015414,18.7066667 1.7216185,20.2613333 C2.4238921,22.36 3.79175337,23.6213333 5.57626204,23.816 C6.01649326,23.864 6.43576108,23.888 6.85240848,23.888 C8.41680154,23.888 9.65626204,23.5493333 11.0922543,23.1573333 C13.3510597,22.5413333 16.1601541,21.776 21.9591522,21.776 L22.1032755,21.776 L22.1294798,21.776 C23.5497495,21.776 27.027052,21.456 28.6097881,18.4933333 C29.456185,16.9093333 29.4063969,14.9866667 29.3775723,13.8373333 C29.3749518,13.7093333 29.3723314,13.592 29.369711,13.4853333 C29.351368,12.1146667 28.5809634,5.54933333 28.1485934,4.37333333 C27.6480925,3.016 26.958921,1.99733333 26.1020424,1.344 C24.7053565,0.277333333 23.5183044,0.0453333333 22.0534875,0.016 L22.0430058,0.016 L22.0168015,0.016 Z" id="Shape" fill="#282828"></path>
            <path d="M19.0950289,11.7413333 C19.058343,11.7626667 19.021657,11.7866667 18.9875915,11.808 C18.7045857,12 18.4242004,12.1946667 18.143815,12.3893333 C17.4939499,12.84 13.7100578,15.4586667 13.7100578,15.4586667 C13.3877457,15.7066667 12.7824277,16.096 12.5518304,15.9733333 C12.3212331,15.848 12.24,15.0026667 12.1849711,14.592 L12.171869,14.5013333 C12.103738,14.008 11.5586898,9.30933333 11.4957996,8.792 C11.4774566,8.64533333 11.3883622,8.10933333 11.5534489,7.98666667 C11.7290173,7.856 12.1744894,8.00533333 12.3238536,8.05333333 C13.1964547,8.33333333 17.5673218,9.88266667 18.9273218,10.5786667 C18.9666281,10.6 19.0111753,10.6186667 19.0557225,10.6373333 C19.2496339,10.72 19.5169171,10.8346667 19.5221794,11.1653333 C19.5247784,11.48 19.2863198,11.624 19.0950289,11.7413333 L19.0950289,11.7413333 Z" id="Path" fill="#FFFFFF"></path>
            <path d="M12.1063584,8.68 C13.6235838,9.2 17.1349518,10.4666667 18.7884393,11.2133333 C18.5892871,11.3493333 18.3901349,11.488 18.1909827,11.6266667 C17.420578,12.16 12.9422736,15.2613333 12.9422736,15.2613333 L12.9186898,15.2773333 L12.8977264,15.2933333 C12.8977264,15.2933333 12.895106,15.2933333 12.895106,15.296 C12.8898651,15.2586667 12.8872447,15.2266667 12.8820039,15.1973333 L12.85842,15.016 L12.8426975,14.904 C12.7850482,14.488 12.4234297,11.4 12.2085549,9.55466667 C12.1692486,9.21866667 12.135183,8.91733333 12.1063584,8.68 L12.1063584,8.68 Z M11.257341,7.28533333 C11.1603854,7.28533333 11.0739114,7.30133333 11.0136416,7.34666667 C10.8171098,7.49066667 10.9245472,8.128 10.9455106,8.30133333 C11.0188825,8.912 11.6661272,14.48 11.7447399,15.064 L11.757842,15.1706667 C11.8233526,15.6586667 11.9176879,16.6613333 12.1928324,16.808 C12.2295183,16.8266667 12.2740655,16.8373333 12.3238536,16.8373333 C12.6514066,16.8373333 13.2357611,16.456 13.5659345,16.2 C13.5659345,16.2 18.0468593,13.0986667 18.817264,12.5653333 C19.1500578,12.3333333 19.4828516,12.104 19.8182659,11.8773333 C19.8601927,11.8506667 19.9021195,11.824 19.9466667,11.7973333 C20.1746435,11.6586667 20.4550289,11.4853333 20.4498604,11.1146667 C20.4419268,10.7253333 20.1274759,10.5893333 19.8968786,10.4906667 C19.8444701,10.4693333 19.7946821,10.4453333 19.7475145,10.4213333 C18.1385742,9.59733333 12.9606166,7.76266667 11.9281696,7.42933333 C11.7971484,7.38666667 11.4957996,7.28533333 11.257341,7.28533333 L11.257341,7.28533333 Z" id="Shape" fill="#282828"></path>
        </g>
    </g>
</svg>

<?xml version="1.0" encoding="utf-8"?><svg version="1.1" id="Layer_1" xmlns="http://www.w3.org/2000/svg" xmlns:xlink="http://www.w3.org/1999/xlink" x="0px" y="0px" viewBox="0.07 0.02 29.32 23.87" style="enable-background:new 0.07 0.02 29.32 23.87" xml:space="preserve"><style type="text/css"><![CDATA[
	.st0{fill:#282828;}
	.st1{fill:#FF0000;}
	.st2{fill:#FFFFFF;}
]]></style><title>Kids_Logo_Black_forWhiteBG_RGB (1)</title><desc>Created with Sketch.</desc><g id="Page-1"><g id="Kids_x5F_Logo_x5F_Black_x5F_forWhiteBG_x5F_RGB-_x28_1_x29_"><path id="Path_8_" class="st1" d="M28.91,13.58c-0.02-1.41-0.82-8.11-1.21-9.15c-0.25-0.67-0.78-1.9-1.75-2.64 c-1.25-0.95-2.27-1.13-3.57-1.15C21.47,0.61,6.89,2.5,5.12,3.16C3.8,3.65,2.77,4.29,1.96,5.1C0.63,6.43,0.38,7.72,0.59,9.99 c0.19,2.06,1.14,8.88,1.61,10.29c0.52,1.56,1.48,2.76,3.06,2.93c4.83,0.53,5.97-2.17,17.2-2.15c3.4,0.01,5.09-1.5,5.8-2.82 C29.08,16.69,28.92,14.65,28.91,13.58L28.91,13.58z"/><path id="Shape_4_" class="st0" d="M22.02,1.15h0.01c1.24,0.02,2.21,0.19,3.41,1.1c0.93,0.71,1.44,1.88,1.67,2.52 c0.37,0.99,1.13,7.38,1.15,8.73c0.01,1.03,0.17,2.97-0.62,4.45c-0.67,1.25-2.28,2.69-5.51,2.69c-0.01,0-0.02,0-0.02,0 c-0.05,0-0.1,0-0.15,0c-9.63,0-11.4,2.11-15.1,2.11c-0.36,0-0.75-0.02-1.16-0.06c-1.51-0.17-2.42-1.31-2.92-2.79 c-0.45-1.35-1.35-7.86-1.54-9.82c-0.2-2.17,0.04-3.4,1.3-4.66c0.77-0.78,1.76-1.38,3.02-1.85C7.24,2.93,21.03,1.15,22.02,1.15 L22.02,1.15z M22.02,0.02c-0.62,0-4.7,0.51-8.12,0.98c-3.42,0.47-7.7,1.12-8.72,1.5C3.77,3.02,2.65,3.71,1.76,4.61 c-1.63,1.64-1.83,3.35-1.63,5.58c0.16,1.73,1.07,8.52,1.59,10.08c0.7,2.1,2.07,3.36,3.85,3.55c0.44,0.05,0.86,0.07,1.28,0.07 c1.56,0,2.8-0.34,4.24-0.73c2.26-0.62,5.07-1.38,10.87-1.38h0.14h0.03c1.42,0,4.9-0.32,6.48-3.28c0.85-1.58,0.8-3.51,0.77-4.66 c0-0.13,0-0.25-0.01-0.35c-0.02-1.37-0.79-7.94-1.22-9.11C27.65,3.02,26.96,2,26.1,1.34c-1.4-1.07-2.58-1.3-4.05-1.33h-0.01H22.02 z"/><path id="Path_9_" class="st2" d="M19.1,11.74c-0.04,0.02-0.07,0.05-0.11,0.07c-0.28,0.19-0.56,0.39-0.84,0.58 c-0.65,0.45-4.43,3.07-4.43,3.07c-0.32,0.25-0.93,0.64-1.16,0.51c-0.23-0.13-0.31-0.97-0.37-1.38l-0.01-0.09 c-0.07-0.49-0.61-5.19-0.68-5.71c-0.02-0.15-0.11-0.68,0.06-0.81c0.18-0.13,0.62,0.02,0.77,0.07c0.87,0.28,5.24,1.83,6.6,2.53 c0.04,0.02,0.08,0.04,0.13,0.06c0.19,0.08,0.46,0.2,0.47,0.53C19.52,11.48,19.29,11.62,19.1,11.74L19.1,11.74z"/><path id="Shape_5_" class="st0" d="M12.11,8.68c1.52,0.52,5.03,1.79,6.68,2.53c-0.2,0.14-0.4,0.27-0.6,0.41 c-0.77,0.53-5.25,3.64-5.25,3.64l-0.02,0.02l-0.02,0.02c0,0,0,0,0,0c-0.01-0.04-0.01-0.07-0.01-0.1l-0.02-0.18l-0.02-0.11 c-0.06-0.42-0.42-3.5-0.63-5.35C12.17,9.22,12.14,8.92,12.11,8.68L12.11,8.68z M11.26,7.29c-0.1,0-0.18,0.02-0.24,0.06 c-0.2,0.14-0.09,0.78-0.07,0.95c0.07,0.61,0.72,6.18,0.8,6.76l0.01,0.11c0.07,0.49,0.16,1.49,0.44,1.64 c0.04,0.02,0.08,0.03,0.13,0.03c0.33,0,0.91-0.38,1.24-0.64c0,0,4.48-3.1,5.25-3.63c0.33-0.23,0.67-0.46,1-0.69 c0.04-0.03,0.08-0.05,0.13-0.08c0.23-0.14,0.51-0.31,0.5-0.68c-0.01-0.39-0.32-0.53-0.55-0.62c-0.05-0.02-0.1-0.05-0.15-0.07 c-1.61-0.82-6.79-2.66-7.82-2.99C11.8,7.39,11.5,7.29,11.26,7.29L11.26,7.29z"/></g></g></svg>
